_assets/img/case-studies/majik/majik-logo.svg

<svg width="410px" height="64px" viewBox="0 0 410 64" version="1.1" xmlns="http://www.w3.org/2000/svg" xmlns:xlink="http://www.w3.org/1999/xlink">
    <!-- Generator: Sketch 47.1 (45422) - http://www.bohemiancoding.com/sketch -->
    <desc>Created with Sketch.</desc>
    <defs>
        <polygon id="path-1" points="409.2427 0.84 0 0.84 0 63.1146 409.2427 63.1146 409.2427 0.84"></polygon>
    </defs>
    <g id="Page-1" stroke="none" stroke-width="1" fill="none" fill-rule="evenodd">
        <g transform="translate(0.000000, -1.000000)">
            <g id="Group-3" transform="translate(0.000000, 0.160200)">
                <mask id="mask-2" fill="white">
                    <use xlink:href="#path-1"></use>
                </mask>
                <g id="Clip-2"></g>
                <path d="M382.4917,47.5166 L409.2427,47.5166 L409.2427,41.6416 L389.0957,41.6416 L389.0957,27.3296 L407.9647,27.3296 L407.9647,21.4246 L407.5777,21.4246 L407.5777,21.4196 L389.0957,21.4196 L389.0957,7.3756 L408.6207,7.3756 L408.6207,1.5076 L408.2397,1.5076 L408.2397,1.4976 L382.1137,1.4976 L382.1137,47.5116 L382.4917,47.5116 L382.4917,47.5166 Z M203.0947,27.5236 L228.8177,27.5236 L228.8177,47.5776 L235.5837,47.5776 L235.5837,1.5076 L235.4137,1.5076 L235.4137,1.4976 L228.8177,1.4976 L228.8177,21.4196 L203.0947,21.4196 L203.0947,1.5076 L202.9247,1.5076 L202.9247,1.4976 L196.3267,1.4976 L196.3267,47.5776 L203.0947,47.5776 L203.0947,27.5236 Z M140.0997,24.9876 L163.4737,47.5776 L172.6467,47.5776 L147.7517,23.3726 L167.7377,1.5076 L167.5527,1.5076 L167.5627,1.4976 L159.3217,1.4976 L140.0997,22.3836 L140.0997,1.5076 L139.9227,1.5076 L139.9227,1.4976 L133.3257,1.4976 L133.3257,47.5776 L140.0997,47.5776 L140.0997,24.9876 Z M122.7067,1.5076 L122.5627,1.5076 L122.5627,1.4976 L115.9647,1.4976 L115.9647,47.5776 L122.7067,47.5776 L122.7067,1.5076 Z M63.3757,28.0506 L70.2307,11.4666 L77.6177,28.0506 L63.3757,28.0506 Z M93.3107,47.5776 L72.6437,1.2406 L72.5627,1.2406 L72.5617,1.2336 L67.9247,1.2336 L48.1327,47.5776 L55.0057,47.5776 L60.7607,33.9256 L80.3297,33.9256 L86.4717,47.5776 L93.3107,47.5776 Z M42.9997,47.5776 L42.9997,1.5076 L42.9457,1.5076 L42.9457,1.4976 L36.7777,1.4976 L21.5827,20.3916 L6.2987,1.5076 L6.2527,1.5076 L6.2457,1.4976 L-0.0003,1.4976 L-0.0003,47.5776 L6.6517,47.5776 L6.6517,11.7906 L20.9287,29.5356 L20.9817,29.5356 L20.9847,29.5376 L22.2027,29.5376 L36.3147,11.7976 L36.3147,47.5776 L42.9997,47.5776 Z M250.7917,24.6896 C250.7917,19.5666 252.4867,15.3546 255.8837,12.0586 C259.2667,8.7666 263.5767,7.1216 268.8247,7.1106 C273.7857,7.1346 277.9737,8.7946 281.3887,12.1036 C284.8267,15.4346 286.5447,19.5406 286.5447,24.4236 C286.5447,29.4356 284.8267,33.6256 281.3887,36.9906 C277.9627,40.3436 273.6907,42.0216 268.5747,42.0346 C263.5057,42.0106 259.2807,40.3656 255.9017,37.0946 C252.4917,33.7956 250.7917,29.6626 250.7917,24.6896 L250.7917,24.6896 Z M268.1437,48.1046 C268.1817,48.1046 268.2187,48.1096 268.2567,48.1096 C275.5297,48.1096 281.5567,45.8826 286.3377,41.4336 C291.1167,36.9756 293.5077,31.3516 293.5077,24.5586 C293.5077,17.7646 291.1367,12.1166 286.4037,7.6046 C281.6647,3.0946 275.7367,0.8396 268.6167,0.8396 C268.5897,0.8396 268.5617,0.8436 268.5347,0.8436 C268.5087,0.8436 268.4817,0.8396 268.4547,0.8396 C261.3347,0.8396 255.4437,3.0916 250.7867,7.5996 C246.1257,12.1096 243.7997,17.8046 243.7997,24.6866 C243.7997,31.3946 246.1117,36.9746 250.7357,41.4276 C255.3637,45.8806 261.1487,48.1066 268.0917,48.1066 C268.1087,48.1066 268.1257,48.1046 268.1437,48.1046 L268.1437,48.1046 Z M92.7357,63.1096 C92.7567,63.1096 92.7947,63.1146 92.8127,63.1146 C95.5417,63.1146 97.8717,62.5086 99.8127,61.2856 C101.7437,60.0736 103.1447,58.4416 104.0177,56.4096 C104.8847,54.3706 105.3187,51.2386 105.3187,46.9906 L105.3187,1.5076 L105.2007,1.5076 L105.2007,1.4976 L98.6047,1.4976 L98.6047,46.2246 C98.6047,50.0076 98.3127,52.4826 97.7307,53.6466 C97.1477,54.8126 96.3557,55.6256 95.3557,56.0876 C94.3547,56.5506 92.9097,56.7796 91.0187,56.7796 L89.3367,56.7796 L90.5557,62.9156 C91.5677,63.0486 92.2827,63.1126 92.6997,63.1126 C92.7117,63.1126 92.7227,63.1096 92.7357,63.1096 L92.7357,63.1096 Z M303.3247,40.1736 C304.0827,41.3716 305.0117,42.4546 306.1117,43.4226 C309.7377,46.5436 314.5547,48.1066 320.5567,48.1066 C320.5877,48.1066 320.6167,48.1046 320.6467,48.1046 C320.6997,48.1046 320.7507,48.1096 320.8067,48.1096 C326.7007,48.1096 331.4757,46.5376 335.1257,43.3886 C336.2237,42.4466 337.1537,41.3756 337.9167,40.1736 C338.6667,38.9806 339.3097,37.4796 339.8237,35.6726 C340.3467,33.8716 340.6037,31.2006 340.6037,27.6566 L340.6037,1.5076 L340.3487,1.5076 L340.3487,1.4976 L333.7197,1.4976 L333.7197,27.6566 C333.7197,31.2826 333.4327,33.8456 332.8607,35.3396 C332.2897,36.8366 331.3547,38.1336 330.0587,39.2326 C327.6117,41.2626 324.4487,42.2796 320.5737,42.2946 C317.8977,42.2726 315.5657,41.7666 313.5897,40.7686 C311.5587,39.7506 310.0597,38.3926 309.0677,36.6996 C308.0797,35.0046 307.5817,31.9906 307.5817,27.6566 L307.5817,1.5076 L307.3317,1.5076 L307.3317,1.4976 L300.7017,1.4976 L300.7017,27.5906 C300.7017,31.3066 300.9487,34.0316 301.4457,35.7686 C301.9377,37.5076 302.5647,38.9736 303.3247,40.1736 L303.3247,40.1736 Z M356.8307,25.2236 L361.8457,28.2706 C365.8907,30.7866 367.9137,33.4476 367.9137,36.2536 C367.9137,37.9846 367.2257,39.4246 365.8527,40.5746 C364.5077,41.6986 362.8277,42.2666 360.8207,42.2906 C356.2107,42.2276 352.1527,39.9866 348.6377,35.5366 L348.6377,35.8986 C348.5327,35.7716 348.4247,35.6616 348.3197,35.5316 L348.3197,43.9086 C352.0607,46.7056 356.2047,48.1066 360.7557,48.1066 C360.8057,48.1066 360.8497,48.0966 360.9007,48.0956 C360.9597,48.0966 361.0147,48.1096 361.0737,48.1096 C365.0327,48.1096 368.2467,46.9556 370.7237,44.6506 C373.1967,42.3376 374.4327,39.3346 374.4327,35.6466 C374.4327,30.4516 371.6207,26.1756 366.0007,22.8226 L360.9617,19.8376 C358.6997,18.5166 357.0617,17.2526 356.0407,16.0466 C355.0207,14.8466 354.5147,13.5476 354.5147,12.1666 C354.5147,10.6196 355.2057,9.3356 356.5897,8.3416 C357.9397,7.3686 359.6667,6.8746 361.7537,6.8506 C365.5127,6.8986 369.0307,8.4866 372.3017,11.6326 L372.3017,11.3546 C372.4047,11.4516 372.5097,11.5326 372.6127,11.6326 L372.6127,4.1476 C369.4057,1.9896 365.8757,0.9106 362.0337,0.9106 C361.9887,0.9106 361.9517,0.9196 361.9087,0.9196 C361.8437,0.9196 361.7797,0.9056 361.7147,0.9056 C357.6897,0.9056 354.4167,2.0366 351.8987,4.3006 C349.3837,6.5686 348.1217,9.5146 348.1217,13.1416 C348.1217,15.5626 348.7877,17.6986 350.1197,19.5576 C351.4487,21.4136 353.6847,23.3046 356.8307,25.2236 L356.8307,25.2236 Z" id="Fill-1" fill="#FFFFFE" mask="url(#mask-2)"></path>
            </g>
            <g id="Group-6" transform="translate(0.000000, 53.160200)" fill="#FFFFFE">
                <path d="M0.2168,10.8711 L6.0258,10.8711 L6.0258,9.5961 L1.6498,9.5961 L1.6498,6.4871 L5.7468,6.4871 L5.7468,5.2051 L1.6498,5.2051 L1.6498,2.1541 L5.8898,2.1541 L5.8898,0.8791 L0.2168,0.8791 L0.2168,10.8711 Z M11.3478,8.4261 C11.3478,8.8021 11.1978,9.1151 10.8998,9.3651 C10.6018,9.6141 10.2278,9.7391 9.7788,9.7391 C8.7618,9.7391 7.8668,9.2491 7.0928,8.2681 L7.0928,10.0881 C7.9048,10.6961 8.8048,11.0001 9.7928,11.0001 C10.6528,11.0001 11.3508,10.7491 11.8888,10.2481 C12.4258,9.7461 12.6938,9.0951 12.6938,8.2921 C12.6938,7.1661 12.0838,6.2381 10.8638,5.5091 L9.7698,4.8601 C9.2778,4.5731 8.9218,4.2991 8.6998,4.0371 C8.4788,3.7751 8.3678,3.4951 8.3678,3.1951 C8.3678,2.8571 8.5188,2.5811 8.8188,2.3641 C9.1198,2.1471 9.5038,2.0391 9.9728,2.0391 C10.8028,2.0391 11.5788,2.3861 12.2998,3.0801 L12.2998,1.4541 C11.6028,0.9841 10.8368,0.7501 10.0008,0.7501 C9.1268,0.7501 8.4168,0.9961 7.8698,1.4881 C7.3228,1.9791 7.0498,2.6201 7.0498,3.4081 C7.0498,3.9331 7.1948,4.3961 7.4838,4.8011 C7.7718,5.2041 8.2578,5.6141 8.9408,6.0311 L10.0298,6.6921 C10.9078,7.2391 11.3478,7.8161 11.3478,8.4261 L11.3478,8.4261 Z M13.4178,2.1401 L16.8488,2.1401 L16.8488,10.8851 L18.2878,10.8851 L18.2878,2.1401 L21.7768,2.1401 L21.7768,0.8651 L13.4178,0.8651 L13.4178,2.1401 Z M21.1748,9.5391 C21.0078,9.7061 20.9238,9.9111 20.9238,10.1551 C20.9238,10.3931 21.0078,10.5941 21.1748,10.7561 C21.3418,10.9191 21.5468,11.0001 21.7908,11.0001 C22.0388,11.0001 22.2478,10.9191 22.4178,10.7561 C22.5868,10.5941 22.6718,10.3931 22.6718,10.1551 C22.6718,9.9111 22.5858,9.7061 22.4138,9.5391 C22.2418,9.3721 22.0338,9.2881 21.7908,9.2881 C21.5468,9.2881 21.3418,9.3721 21.1748,9.5391 L21.1748,9.5391 Z M28.9818,10.8851 L30.4148,10.8851 L30.4148,0.8791 L28.9818,0.8791 L28.9818,10.8851 Z M38.9808,8.0811 C39.7358,6.8421 40.1128,5.6161 40.1128,4.4021 C40.1128,3.3341 39.8118,2.4571 39.2098,1.7731 C38.6088,1.0921 37.8348,0.7501 36.8898,0.7501 C36.0488,0.7501 35.3378,1.0391 34.7548,1.6171 C34.1728,2.1951 33.8808,2.8981 33.8808,3.7291 C33.8808,4.5261 34.1548,5.2101 34.7018,5.7771 C35.2478,6.3471 35.9038,6.6311 36.6678,6.6311 C37.2788,6.6311 37.8108,6.4901 38.2648,6.2081 C38.0788,6.9101 37.7088,7.5941 37.1548,8.2601 C36.6008,8.9261 35.9538,9.4931 35.2138,9.9611 L36.0948,11.0001 C37.2648,10.2931 38.2268,9.3201 38.9808,8.0811 L38.9808,8.0811 Z M36.9758,5.3121 C36.5168,5.3121 36.1228,5.1551 35.7938,4.8401 C35.4638,4.5241 35.2998,4.1491 35.2998,3.7161 C35.2998,3.2431 35.4508,2.8501 35.7538,2.5371 C36.0578,2.2251 36.4408,2.0671 36.9038,2.0671 C37.4098,2.0671 37.8238,2.2521 38.1468,2.6201 C38.4688,2.9871 38.6298,3.4601 38.6298,4.0381 C38.6298,4.1511 38.6018,4.4001 38.5438,4.7831 C38.0328,5.1361 37.5098,5.3121 36.9758,5.3121 L36.9758,5.3121 Z M46.3158,8.0811 C47.0698,6.8421 47.4468,5.6161 47.4468,4.4021 C47.4468,3.3341 47.1468,2.4571 46.5448,1.7731 C45.9428,1.0921 45.1698,0.7501 44.2238,0.7501 C43.3838,0.7501 42.6718,1.0391 42.0898,1.6171 C41.5068,2.1951 41.2158,2.8981 41.2158,3.7291 C41.2158,4.5261 41.4888,5.2101 42.0358,5.7771 C42.5828,6.3471 43.2378,6.6311 44.0018,6.6311 C44.6128,6.6311 45.1458,6.4901 45.5988,6.2081 C45.4128,6.9101 45.0428,7.5941 44.4888,8.2601 C43.9348,8.9261 43.2878,9.4931 42.5478,9.9611 L43.4288,11.0001 C44.5988,10.2931 45.5608,9.3201 46.3158,8.0811 L46.3158,8.0811 Z M44.3098,5.3121 C43.8518,5.3121 43.4578,5.1551 43.1278,4.8401 C42.7988,4.5241 42.6338,4.1491 42.6338,3.7161 C42.6338,3.2431 42.7858,2.8501 43.0888,2.5371 C43.3918,2.2251 43.7748,2.0671 44.2388,2.0671 C44.7448,2.0671 45.1588,2.2521 45.4808,2.6201 C45.8038,2.9871 45.9648,3.4601 45.9648,4.0381 C45.9648,4.1511 45.9358,4.4001 45.8788,4.7831 C45.3678,5.1361 44.8448,5.3121 44.3098,5.3121 L44.3098,5.3121 Z M48.9978,4.7481 C49.1818,5.0891 49.4858,5.4311 49.9108,5.7741 C48.9658,6.3241 48.4928,7.1071 48.4928,8.1261 C48.4928,8.9371 48.8008,9.6201 49.4168,10.1721 C50.0328,10.7241 50.7948,11.0001 51.7018,11.0001 C52.6188,11.0001 53.3778,10.7291 53.9798,10.1891 C54.5808,9.6491 54.8818,8.9671 54.8818,8.1401 C54.8818,7.0981 54.4188,6.3091 53.4928,5.7741 C54.3238,5.1921 54.7388,4.4561 54.7388,3.5621 C54.7388,2.7701 54.4508,2.1031 53.8758,1.5621 C53.2998,1.0201 52.5948,0.7501 51.7588,0.7501 C50.9088,0.7501 50.1908,1.0221 49.6028,1.5701 C49.0158,2.1161 48.7218,2.7811 48.7218,3.5621 C48.7218,4.0121 48.8138,4.4071 48.9978,4.7481 L48.9978,4.7481 Z M52.8548,4.6651 C52.5498,4.9581 52.1788,5.1041 51.7448,5.1041 C51.3058,5.1041 50.9298,4.9571 50.6168,4.6611 C50.3038,4.3651 50.1478,4.0091 50.1478,3.5941 C50.1478,3.1591 50.2958,2.8041 50.5918,2.5261 C50.8878,2.2501 51.2668,2.1101 51.7308,2.1101 C52.1888,2.1101 52.5678,2.2521 52.8658,2.5341 C53.1638,2.8141 53.3138,3.1741 53.3138,3.6071 C53.3138,4.0181 53.1608,4.3711 52.8548,4.6651 L52.8548,4.6651 Z M52.9518,9.2381 C52.6298,9.5051 52.2178,9.6391 51.7158,9.6391 C51.1908,9.6391 50.7638,9.4931 50.4338,9.2021 C50.1048,8.9111 49.9398,8.5341 49.9398,8.0701 C49.9398,7.6061 50.1008,7.2291 50.4238,6.9381 C50.7458,6.6471 51.1618,6.5021 51.6728,6.5021 C52.1938,6.5021 52.6178,6.6451 52.9448,6.9341 C53.2718,7.2241 53.4348,7.5981 53.4348,8.0561 L53.4348,8.1991 C53.4348,8.6241 53.2738,8.9711 52.9518,9.2381 L52.9518,9.2381 Z" id="Fill-4"></path>
            </g>
        </g>
    </g>
</svg>

<svg width="410" height="64" viewBox="0 0 410 64" xmlns="http://www.w3.org/2000/svg" xmlns:xlink="http://www.w3.org/1999/xlink"><defs><path id="a" d="M409.2427 0.84L0 0.84 0 63.1146 409.2427 63.1146 409.2427 0.84z"/></defs><g transform="translate(0 -1)" fill="none" fill-rule="evenodd"><g transform="translate(0 .16)"><mask id="b" fill="#fff"><use xlink:href="#a"/></mask><path d="M382.492 47.517h26.75v-5.875h-20.146V27.33h18.869v-5.905h-.387v-.005h-18.482V7.376h19.525V1.508h-.381v-.01h-26.126v46.014h.378v.005zM203.095 27.524h25.723v20.054h6.766V1.508h-.17v-.01h-6.596V21.42h-25.723V1.508h-.17v-.01h-6.598v46.08h6.768V27.524zM140.1 24.988l23.374 22.59h9.173l-24.895-24.205 19.986-21.865h-.185l.01-.01h-8.241L140.1 22.384V1.508h-.177v-.01h-6.597v46.08h6.774v-22.59zm-17.393-23.48h-.144v-.01h-6.598v46.08h6.742V1.508zM63.376 28.05l6.855-16.584 7.387 16.584H63.376zM93.31 47.578L72.644 1.24h-.081l-.001-.007h-4.637L48.133 47.578h6.873l5.755-13.652H80.33l6.142 13.652h6.839zm-50.311 0V1.508h-.054v-.01h-6.168L21.583 20.392 6.299 1.508h-.046l-.007-.01H0v46.08h6.652V11.79l14.277 17.745h.053l.003.002h1.218l14.112-17.74v35.78H43zM250.792 24.69c0-5.123 1.695-9.335 5.092-12.631 3.383-3.292 7.693-4.937 12.94-4.948 4.962.024 9.15 1.684 12.565 4.993 3.438 3.33 5.156 7.437 5.156 12.32 0 5.012-1.718 9.202-5.156 12.567-3.426 3.353-7.698 5.03-12.814 5.044-5.07-.024-9.294-1.67-12.673-4.94-3.41-3.3-5.11-7.432-5.11-12.405zm17.352 23.415c.038 0 .075.005.113.005 7.273 0 13.3-2.227 18.08-6.676 4.78-4.458 7.17-10.082 7.17-16.875 0-6.794-2.37-12.442-7.103-16.954-4.74-4.51-10.667-6.765-17.787-6.765-.027 0-.055.004-.082.004-.026 0-.053-.004-.08-.004-7.12 0-13.011 2.252-17.668 6.76-4.661 4.51-6.987 10.205-6.987 17.087 0 6.708 2.312 12.288 6.936 16.74 4.628 4.454 10.413 6.68 17.356 6.68l.052-.002zM92.736 63.11c.02 0 .059.005.077.005 2.729 0 5.059-.606 7-1.83 1.93-1.211 3.332-2.843 4.205-4.875.867-2.04 1.3-5.171 1.3-9.42V1.509h-.117v-.01h-6.596v44.727c0 3.783-.292 6.258-.874 7.422-.583 1.166-1.375 1.979-2.375 2.44-1.001.464-2.446.693-4.337.693h-1.682l1.219 6.136c1.012.133 1.727.197 2.144.197.012 0 .023-.003.036-.003zm210.589-22.936a14.997 14.997 0 0 0 2.787 3.249c3.626 3.12 8.443 4.684 14.445 4.684l.09-.002c.053 0 .104.005.16.005 5.894 0 10.669-1.572 14.319-4.721a14.349 14.349 0 0 0 2.79-3.215c.75-1.193 1.394-2.694 1.908-4.501.523-1.801.78-4.472.78-8.016V1.507h-.255v-.01h-6.63v26.16c0 3.626-.286 6.189-.858 7.683-.571 1.497-1.506 2.794-2.802 3.893-2.447 2.03-5.61 3.047-9.485 3.062-2.676-.022-5.008-.528-6.984-1.526-2.031-1.018-3.53-2.376-4.522-4.07-.988-1.694-1.486-4.708-1.486-9.042V1.507h-.25v-.01h-6.63v26.094c0 3.716.247 6.44.744 8.178.492 1.739 1.119 3.205 1.879 4.405zm53.506-14.95l5.015 3.047c4.045 2.516 6.068 5.177 6.068 7.983 0 1.73-.688 3.17-2.061 4.32-1.345 1.125-3.025 1.693-5.032 1.717-4.61-.063-8.668-2.304-12.183-6.754v.362c-.105-.127-.213-.237-.318-.367v8.377c3.74 2.797 7.885 4.198 12.436 4.198.05 0 .094-.01.145-.011.059 0 .114.014.173.014 3.959 0 7.173-1.154 9.65-3.46 2.473-2.312 3.709-5.315 3.709-9.003 0-5.195-2.812-9.471-8.432-12.824l-5.04-2.985c-2.261-1.321-3.9-2.585-4.92-3.791-1.02-1.2-1.526-2.5-1.526-3.88 0-1.547.69-2.831 2.075-3.825 1.35-.973 3.077-1.467 5.164-1.491 3.759.048 7.277 1.636 10.548 4.782v-.278c.103.097.208.178.31.278V4.148C369.407 1.99 365.877.91 362.035.91c-.045 0-.082.009-.125.009-.065 0-.13-.014-.194-.014-4.025 0-7.298 1.13-9.816 3.395-2.515 2.268-3.777 5.214-3.777 8.84 0 2.422.666 4.558 1.998 6.417 1.329 1.856 3.565 3.747 6.71 5.666z" fill="#FFFFFE" mask="url(#b)"/></g><path d="M.217 64.031h5.809v-1.275H1.65v-3.109h4.097v-1.282H1.65v-3.05h4.24v-1.276H.217v9.992zm11.13-2.445c0 .376-.15.69-.447.94-.298.248-.672.373-1.121.373-1.017 0-1.912-.49-2.686-1.47v1.82a4.4 4.4 0 0 0 2.7.911c.86 0 1.558-.25 2.096-.752.537-.502.805-1.153.805-1.956 0-1.126-.61-2.054-1.83-2.783L9.77 58.02c-.492-.287-.848-.56-1.07-.823-.221-.262-.332-.542-.332-.842 0-.338.15-.614.45-.83.302-.218.686-.326 1.155-.326.83 0 1.606.347 2.327 1.041v-1.626a4.024 4.024 0 0 0-2.3-.704c-.873 0-1.583.246-2.13.738-.547.491-.82 1.132-.82 1.92 0 .525.145.988.434 1.393.288.403.774.813 1.457 1.23l1.089.661c.878.547 1.318 1.124 1.318 1.734zm2.07-6.286h3.432v8.745h1.439V55.3h3.489v-1.275h-8.36V55.3zm7.758 7.4a.837.837 0 0 0-.251.615c0 .238.084.44.25.601a.847.847 0 0 0 .617.244.871.871 0 0 0 .627-.244.8.8 0 0 0 .254-.6.824.824 0 0 0-.258-.617.863.863 0 0 0-.623-.25.837.837 0 0 0-.616.25zm7.807 1.345h1.433V54.04h-1.433v10.006zm9.999-2.804c.755-1.239 1.132-2.465 1.132-3.679 0-1.068-.301-1.945-.903-2.629-.601-.68-1.375-1.023-2.32-1.023-.841 0-1.552.29-2.135.867a2.864 2.864 0 0 0-.874 2.112c0 .797.274 1.481.82 2.048.547.57 1.203.854 1.967.854.61 0 1.143-.14 1.597-.423-.186.702-.556 1.386-1.11 2.052a8.229 8.229 0 0 1-1.941 1.701l.88 1.04c1.17-.708 2.133-1.68 2.887-2.92zm-2.005-2.769c-.46 0-.853-.157-1.182-.472a1.504 1.504 0 0 1-.494-1.124c0-.473.15-.866.454-1.179.304-.312.687-.47 1.15-.47.506 0 .92.185 1.243.553.322.367.483.84.483 1.418 0 .113-.028.362-.086.745-.511.353-1.034.53-1.568.53zm9.34 2.77c.754-1.24 1.13-2.466 1.13-3.68 0-1.068-.3-1.945-.901-2.629-.602-.68-1.375-1.023-2.321-1.023-.84 0-1.552.29-2.134.867a2.86 2.86 0 0 0-.874 2.112c0 .797.273 1.481.82 2.048.547.57 1.202.854 1.966.854.61 0 1.144-.14 1.597-.423-.186.702-.556 1.386-1.11 2.052a8.229 8.229 0 0 1-1.941 1.701l.88 1.04c1.17-.708 2.133-1.68 2.888-2.92zm-2.006-2.77c-.458 0-.852-.157-1.182-.472-.33-.316-.494-.69-.494-1.124 0-.473.152-.866.455-1.179.303-.312.686-.47 1.15-.47.506 0 .92.185 1.242.553.323.367.484.84.484 1.418 0 .113-.03.362-.086.745-.511.353-1.034.53-1.57.53zm4.688-.564c.184.341.488.683.913 1.026-.945.55-1.418 1.333-1.418 2.352 0 .811.308 1.494.924 2.046.616.552 1.378.828 2.285.828.917 0 1.676-.27 2.278-.81.6-.54.902-1.223.902-2.05 0-1.042-.463-1.83-1.39-2.366.832-.582 1.247-1.318 1.247-2.212 0-.792-.288-1.459-.863-2-.576-.542-1.281-.812-2.117-.812-.85 0-1.568.272-2.156.82-.587.546-.881 1.211-.881 1.992 0 .45.092.845.276 1.186zm3.857-.083a1.545 1.545 0 0 1-1.11.44c-.44 0-.815-.148-1.128-.444a1.417 1.417 0 0 1-.47-1.067c0-.435.149-.79.445-1.068.296-.276.675-.416 1.139-.416.458 0 .837.142 1.135.424.298.28.448.64.448 1.073 0 .411-.153.764-.46 1.058zm.097 4.573c-.322.267-.734.401-1.236.401-.525 0-.952-.146-1.282-.437-.33-.29-.494-.668-.494-1.132 0-.464.16-.84.484-1.132.322-.29.738-.436 1.249-.436.52 0 .945.143 1.272.432.327.29.49.664.49 1.122v.143c0 .425-.161.772-.483 1.04z" fill="#FFFFFE"/></g></svg>
